icons-common/edit.svg

<svg height="1em" width="auto" viewBox="0 0 105 105" fill="currentColor" xmlns="http://www.w3.org/2000/svg">
    <path d="M59.9484 26.3782C55.542 31.06 35.2045 54.3664 30.5559 59.6143C29.2001 60.9005 28.0379 62.4954 27.3116 64.2447C27.2147 64.5534 27.1179 64.8106 27.0211 65.0678C26.8274 65.4794 26.7305 65.9425 26.5852 66.4055C25.181 70.7272 24.3578 75.4091 25.7136 79.3192C26.0526 80.2453 26.7789 81.017 27.6505 81.3772C31.4275 82.8692 35.8824 81.9431 39.9983 80.3997C40.0467 80.3997 40.0952 80.3997 40.192 80.3997C40.6278 80.1939 41.1605 80.0395 41.5963 79.8337C42.3226 79.525 42.9521 79.1134 43.5816 78.5989C45.0343 77.4671 50.2155 71.9106 51.7166 70.5729L76.5574 45.9288C87.9851 33.9926 72.3446 15.6253 59.9968 26.3782H59.9484ZM46.4869 64.7592L40.3373 71.0359C39.7562 71.6533 39.0783 72.4765 38.3035 72.7338C35.4466 73.9685 32.4928 70.4185 33.9455 67.5374C34.236 66.8686 35.5434 65.6338 35.9792 65.1193C39.9983 60.6947 61.7401 36.8738 65.2749 33.118C69.294 29.6709 74.3784 35.7933 70.8435 39.652L46.5354 64.8106L46.4869 64.7592Z"
          />
</svg>

<svg xmlns="http://www.w3.org/2000/svg" width="auto" height="1em" fill="currentColor" viewBox="0 0 105 105">
    <path d="M59.948 26.378c-4.406 4.682-24.743 27.988-29.392 33.236-1.356 1.287-2.518 2.881-3.244 4.63-.097.31-.194.567-.29.824-.195.411-.291.874-.437 1.338-1.404 4.321-2.227 9.003-.871 12.913.339.926 1.065 1.698 1.937 2.058 3.776 1.492 8.231.566 12.347-.977h.194c.436-.206.968-.36 1.404-.566.727-.309 1.356-.72 1.986-1.235 1.452-1.132 6.633-6.688 8.135-8.026l24.84-24.644c11.428-11.936-4.212-30.304-16.56-19.55zM46.487 64.76l-6.15 6.277c-.58.617-1.259 1.44-2.034 1.698-2.856 1.235-5.81-2.315-4.357-5.197.29-.668 1.597-1.903 2.033-2.418C40 60.695 61.74 36.874 65.275 33.118c4.019-3.447 9.103 2.675 5.569 6.534L46.535 64.811z"/>
</svg>
